outputs/icons/hardware/cast_connected_sharp.svg

<svg xmlns="http://www.w3.org/2000/svg" width="1200" height="1200" fill="none"><g clip-path="url(#a)"><path fill="#000" d="M50 900v150h150c0-83-67-150-150-150m0-200v100c138 0 250 112 250 250h100c0-193.5-156.5-350-350-350m900-350H250v81.5C448 495.5 604.5 652 668.5 850H950zM50 500v100c248.5 0 450 201.5 450 450h100c0-304-246.5-550-550-550m1100-350H50v250h100V250h900v700H700v100h450z"/></g><defs><clipPath id="a"><path fill="#fff" d="M0 0h1200v1200H0z"/></clipPath></defs></svg>

<svg width="1200" height="1200" viewBox="0 0 1200 1200" fill="none" xmlns="http://www.w3.org/2000/svg"><g clip-path="url(#clip0_238_1036)"><path d="M50 900V1050H200C200 967 133 900 50 900ZM50 700V800C188 800 300 912 300 1050H400C400 856.5 243.5 700 50 700ZM950 350H250V431.5C448 495.5 604.5 652 668.5 850H950V350ZM50 500V600C298.5 600 500 801.5 500 1050H600C600 746 353.5 500 50 500ZM1150 150H50V400H150V250H1050V950H700V1050H1150V150Z" fill="black"/></g><defs><clipPath id="clip0_238_1036"><path width="24" fill="white" d="M0 0H1200V1200H0V0z"/></clipPath></defs></svg>
